X:319
T:Reel 319
M:4/4
K:Dmaj
L:1/8
A2FD ADFD|A,DFA GECE|A2FD ADFA|GECD EDD2|ADFD ADFD|A,DFA GECE|DCDE FGAd|cAGE FDD2|Addc A2Bd|cdef gefd|Addc d2ed|cAGE EDD2|Addc A2AB|cdef gefg| (3agf ge fded|cAGE EDD2|
